Adwaita++-Dark/apps/16/amarok.svg

<svg height="16" width="16" xmlns="http://www.w3.org/2000/svg">
  <path d="m13.367652.50000022c-.368702 0-1.083853.87421268-1.351912 1.01216138-.268542.1379485-2.3910304 1.7011244-2.5918326 1.9770696-.2012859.2758969-.4695136.3910847-.7598299.3681013-.2907999-.0229355-1.2084921-.0327054-1.5215496.1512099-.3125736.1840121-1.7407921 1.6883008-2.09851 1.8721677-.3574854.1838959-.823682.2779901-1.0471287.3010023-.2234028.0229646-.9636965.8714999-1.1647887 1.0324802-.2010925.160985-1.7900079.8686392-2.01345458 1.0064909-.22345628.1379726 1.63005008 2.0700275 1.89815688 2.1159935.2681312.04605-.6950055.655845-.7007633 1.092964-.00571.436064.461392 1.734979 3.1687925 3.263299 2.3405763 1.321228 4.812805.684921 5.745977.415827.370231-.106773.234378-1.333246.302893-1.985102.04473-.413865.201043-3.8859187.782038-4.8056401.580923-.9196243 2.241457-2.0237586 2.822428-2.1386752.580971-.1149605.469223-.3450223.469223-.5519162 0-.2069082-.08975-.6667806-.246188-.7357306-.156394-.06896-.766652.3452841-.967744.3912555-.201092.045977-1.161554.1150911-1.29568-.1148249-.134029-.2297851 1.083635-2.5753547 1.239921-2.8512518.156287-.2759453.223701-.6435564-.0671-1.0343702-.290316-.39094438-.491178-.78203878-.602949-.78203878zm-5.0924673 4.83871688c.1515501-.0024.2546941.013232.2546941.013232.0848206.1908821-.3105319.7909094-.6780818.872764-.3674437.0817724-1.2159409 1.2820878-1.2441743 1.0093262-.0283541-.272752.3395357-1.172901.7636101-1.5820336.2650344-.2557202.6513682-.3092935.9039519-.3132881z" fill="#e6ddff"/>
</svg>

<svg xmlns="http://www.w3.org/2000/svg" width="16" height="16" version="1">
 <path fill="#E6DDFF" d="m 13.367652,0.50000022 c -0.368702,0 -1.083853,0.87421268 -1.351912,1.01216138 C 11.747198,1.6501101 9.6247096,3.213286 9.4239074,3.4892312 9.2226215,3.7651281 8.9543938,3.8803159 8.6640775,3.8573325 8.3732776,3.834397 7.4555854,3.8246271 7.1425279,4.0085424 6.8299543,4.1925545 5.4017358,5.6968432 5.0440179,5.8807101 4.6865325,6.064606 4.2203359,6.1587002 3.9968892,6.1817124 3.7734864,6.204677 3.0331927,7.0532123 2.8321005,7.2141926 2.631008,7.3751776 1.0420926,8.0828318 0.81864592,8.2206835 0.59518964,8.3586561 2.448696,10.290711 2.7168028,10.336677 c 0.2681312,0.04605 -0.6950055,0.655845 -0.7007633,1.092964 -0.00571,0.436064 0.461392,1.734979 3.1687925,3.263299 2.3405763,1.321228 4.812805,0.684921 5.745977,0.415827 0.370231,-0.106773 0.234378,-1.333246 0.302893,-1.985102 0.04473,-0.413865 0.201043,-3.8859187 0.782038,-4.8056401 0.580923,-0.9196243 2.241457,-2.0237586 2.822428,-2.1386752 0.580971,-0.1149605 0.469223,-0.3450223 0.469223,-0.5519162 0,-0.2069082 -0.08975,-0.6667806 -0.246188,-0.7357306 -0.156394,-0.06896 -0.766652,0.3452841 -0.967744,0.3912555 -0.201092,0.045977 -1.161554,0.1150911 -1.29568,-0.1148249 C 12.66375,4.9383484 13.881414,2.5927788 14.0377,2.3168817 14.193987,2.0409364 14.261401,1.6733253 13.9706,1.2825115 13.680284,0.89156712 13.479422,0.50047272 13.367651,0.50047272 Z M 8.2751847,5.3387171 c 0.1515501,-0.0024 0.2546941,0.013232 0.2546941,0.013232 C 8.6146994,5.5428312 8.2193469,6.1428585 7.851797,6.2247131 7.4843533,6.3064855 6.6358561,7.5068009 6.6076227,7.2340393 6.5792686,6.9612873 6.9471584,6.0611383 7.3712328,5.6520057 7.6362672,5.3962855 8.022601,5.3427122 8.2751847,5.3387176 Z"/>
</svg>
